X:1
T:Title
%%score { ( 1 3 ) | 2 }
L:1/8
M:4/4
K:Bb
V:1 bass nm="Grand Piano"
V:3 bass 
V:2 bass 
V:1
 z4 z2[Q:1/4=100] [F,B,D][F,CE] | [B,DF]2 [A,EF]2 [B,DF]2 [B,FB][Gc] | dddc [DB]2 dd | %3
 eecc d2 [FB]2 | c6 dc | [DB]2 [Fd]2 [DF]2 [DF][DF] | GcBG [DF]2 [B,D][CE] | %7
 [DF][DF][FB][Gc] [Fd]2 [Ec]2 |[M:3/4] [B,DB]6 |[M:1/4] Bc |[M:4/4] [Fd]4 z4 | [GB]4 z4 | %12
 [DF]>[DF] [DF][DF] [DF][Fd][=Ec][EB] | c6 z2 | [Fd]4 z4 | [GB]4 z4 | FBBc dB c>c |[M:3/4] [DB]6 |] %18
V:2
 z4 z2 B,,B,, | B,,2 C,2 B,,2 D,[E,B,] | %2
 [F,B,F][F,B,F][F,A,F][F,A,E] [B,,B,]2[K:treble] [B,F][B,F] | %3
 [A,CF][A,CF][F,A,F][F,A,F] [B,F]2[K:bass] [D,B,]2 | [F,A,F]6 [F,A,F][F,A,E] | %5
 [B,,B,]2 [B,,B,]2 [B,,B,]2 [B,,B,][B,,B,] | [E,B,E][E,G,E][E,G,E][E,B,E] [B,,B,]2 [B,,F,][B,,F,] | %7
 [B,,B,][B,,B,][D,B,][E,B,] [F,B,]2 [F,A,]2 |[M:3/4] B,,6 |[M:1/4] DE | %10
[M:4/4] [B,,B,]B,, B,,2 [B,,F,] .[B,,F,]3 | [E,E]E, E,2 E,E,E,E, | %12
 [B,,B,]>[B,,B,] [B,,B,][B,,B,] [B,,B,][B,,B,][C,B,][C,C] | [F,A,F]2 [G,B,][G,B,] [F,A,]2 DE | %14
 [B,,B,]B,, B,,2 [B,,F,] .[B,,F,]3 | [E,E]E, E,2 E,E,E,[E,B,E] | %16
 [F,B,D][F,B,D][G,B,=E][G,B,E] [F,B,F][F,B,D] [F,A,_E]>[F,A,E] |[M:3/4] [B,,B,]6 |] %18
V:3
 x8 | x8 | x8 | x8 | x8 | x8 | x8 | x8 |[M:3/4] x6 |[M:1/4] x2 |[M:4/4] z B, B,2 [Ec] .[DB]3 | %11
 z E E2 [EFA][B,EG][EGB][B,EG] | x8 | z2 =EE _E2 Bc | z B, B,2 [Ec] .[DB]3 | %15
 z E E2 [EFA][B,EG][EGB]G | x8 |[M:3/4] x6 |] %18

